X: 250
T: Brighton Review
%R: march, reel
Z: 2014 John Chambers <jc:trillian.mit.edu>
B: Preston "Twenty four Country Dances for the Year 1794" p.105 #2
F: http://www.vwml.org/browse/browse-collections-dance-tune-books/browse-prestons1794# 2014-8-10
M: 2/4
L: 1/8
K: A
|:\
eeec | d3B | cccA | BGE2 |\
eeec | d3B | cABG | A4 :|
|:\
B>G (3EGE | B>G (3EGE | cAec | c2B2 |\
Affg | affd | cB AG | A2 A2 :|
% - - - - - - - - - - - - - - - - - - - - - - - - -
%%begintext align
%% The 1st & 2d Ladies take hands & lead
%% round their Part.rs .| The 1st & 2d Gent.n
%% do the same :| Lead down the middle
%% up again :|. Allemande :|:
%%endtext
% - - - - - - - - - - - - - - - - - - - - - - - - -

%%sep 1 1 500
%%sep 1 1 500
